**kern	**kern
*staff1	*staff1
*solo1[solo1a]	*solo1[solo1a]
*solo1[solo1b]	*solo1[solo1b]
*solo1[solo1aa]	*solo1[solo1aa]
*solo2[solo2a]	*solo2[solo2a]
*solo2[solo2b]	*solo2[solo2b]
*solo2[solo2aa]	*solo2[solo2aa]
*solo3[solo3a]	*solo3[solo3a]
*solo3[solo3b]	*solo3[solo3b]
*solo3[solo3aa]	*solo3[solo3aa]
=1-	=1-
*clefG2	*clefG2
*k[]	*k[]
*B-:	*B-:
*M4/4	*M4/4
4r	1B-:maj
*>solo1a	*>solo1a
{8f/L	.
8g/J	.
8a/L	.
8b-/	.
8cc/	.
8a/J	.
=2	=2
8b-/L	2C:min
8f/	.
8d/	.
8B-/J	.
8f#/L	2F:dom
8g/	.
8e-/	.
8c/J	.
=3	=3
8f/L	2B-:maj
8e-/	.
8d/	.
8c/J	.
8B/L	2G:dom
8a-/	.
8g/	.
8f/J	.
=4	=4
8e-/L	2C:min
8G/	.
8B-/	.
8d/J	.
8c/L	2F:dom
8B-/J	.
16A/LL	.
16c/	.
16e-/	.
16g-/JJ	.
=5	=5
8f/L	2F:min
8e-/	.
8d/	.
8c/J	.
8B-/L	2B-:dom
8A/	.
8A-/	.
8B-/J	.
=6	=6
8G/L	1E-:maj
8B-/	.
8c/	.
8d/J	.
8f/L	.
8e-/	.
8d/	.
8c/J	.
=7	=7
8A/L	1B-:maj
8B-/	.
8c/	.
8A/J	.
8B-/L	.
[8d/J	.
4d/]}	.
=8	=8
2r	2C:min
2r	2F:dom
=9	=9
2r	1B-:maj
{8f/L	.
8g/	.
8b-/	.
[8dd-/J	.
=10||	=10||
8dd-\L]	2C:min
8b-\J	.
[2cc\	.
8cc/L]	2F:dom
8c#/J	.
=11	=11
12d/L	2D:min
12f/	.
12a/J	.
8cc\L	.
8b-\J	.
8bn/L	2D-:min
8a-/	.
8e/	.
8d-/J	.
=12	=12
8b-/L	2C:min
8a/	.
8g/	.
8g-/J	.
8f/L	2F:dom
8e-/	.
8d/	.
8c/J	.
=13	=13
8B-/L	2F:min
8A/	.
8A-/	.
8B-/J	.
8b-/L	2B-:dom
8a-/	.
8g/	.
8f/J	.
=14	=14
8e-/L	2E-:maj
8A/	.
8B-/	.
8c/J	.
8d-/L	2E:o7
8B-/	.
8G/	.
8A/J	.
=15	=15
8c/L	1B-:maj
8B-/	.
8A/	.
8B-/J	.
8d/L	.
8f/J}	.
4r	.
=16	=16
1r	1B-:maj
=17	=17
4r	1F:min
*>solo1b	*>solo1b
{8f/L	.
8a-/J	.
8cc\L	.
8ee-\	.
8dd\	.
8b-\J	.
=18||	=18||
8cc/L	1B-:dom
8a-/	.
8f/	.
8g/J	.
8b-/L	.
8g/J	.
12a-/L	.
12b-/	.
12a-/J	.
=19	=19
8g/L	1E-:maj
8f/	.
8e-/	.
8B/J	.
8B-/L	.
8A-/J	.
12G/L	.
12B-/	.
12d/J	.
=20	=20
8f/L	1E-:maj
8d/J	.
12e-/L	.
12g/	.
12b-/J	.
8dd\L	.
[8cc\J	.
4cc\]}	.
=21	=21
2r	1C:dom
8r	.
{8f#/	.
12g\L	.
12b-\	.
12dd\J	.
=22	=22
8ff\L	1C:dom
8dd\	.
8ee-\	.
8een\J	.
8cc\L	.
8cc#\	.
8dd\	.
8ccn\J	.
=23	=23
8b-/L	1C:min
8a/	.
8g/	.
8f/J	.
8e-/L	.
8G/	.
8B-/	.
8d/J	.
=24	=24
8c/L	1F:dom
8B-/	.
8A/	.
8c/J	.
8e-/L	.
8g-/	.
8e-/	.
8c/J	.
=25	=25
4f/}	1B-:maj
4r	.
4r	.
*>solo1aa	*>solo1aa
{8g/L	.
8a/J	.
=26||	=26||
[4b-\	2C:min
8b-\L]	.
16cc\L	.
16b-\JJ	.
8a/L	2F:dom
8b-/	.
8cc/	.
8a/J	.
=27	=27
8b-/L	1B-:maj
8f/	.
8d/	.
8B-/J	.
8a/L	.
8a-/	.
8g/	.
8g-/J	.
=28	=28
8f/L	2C:min
8e/	.
8e-/	.
8B-/J	.
8G/L	2F:dom
8G-/	.
8d/	.
8c/J	.
=29	=29
8B-/L	2F:min
8A/	.
8A-/	.
8B-/J	.
8b-/L	2B-:dom
8a-/	.
8g/	.
8f/J	.
=30	=30
8e-/L	2E-:maj
8A/	.
8B-/	.
8c/J	.
8d-/L	2E:o7
8B-/	.
8G/	.
8A/J	.
=31	=31
8c/L	1B-:maj
8B-/	.
8A/	.
8B-/J	.
8d/L	.
8B-/J}	.
4r	.
=32	=32
2r	2C:min
2r	2F:dom
=33	=33
2r	1B-:maj
*>solo2a	*>solo2a
{8f/L	.
8g/	.
8a/	.
8b-/J	.
=34||	=34||
8cc\L	2C:min
8b-\	.
8a\	.
8b-\J	.
8dd\L	2F:dom
8ff\J}	.
4r	.
=35	=35
4r	1B-:maj
{8g/L	.
8b-/J	.
8dd\L	.
8ff\	.
8ee\	.
8dd-\J	.
=36	=36
8b-/L	2C:min
8a/	.
8g-/	.
8a/J	.
8cc\L	2F:dom
8ee-\	.
8dd\	.
8cc\J	.
=37	=37
8b-/L	2F:min
8a/	.
8a-/	.
8f/J	.
8b-/L	2B-:dom
8a-/	.
8g/	.
8f/J	.
=38	=38
8e-/L	2E-:maj
8A/	.
8B-/	.
8c/J	.
8d-/L	2E-:o7
8B-/	.
8G/	.
8A/J	.
=39	=39
8c/L	2D:min
8B-/	.
8A/	.
8B-/J	.
8d/L	2G:dom
8f/J}	.
4r	.
=40	=40
2r	2C:min
8r	2F:dom
{8b/L	.
8a/	.
8f#/J	.
=41	=41
8e-/L	1B-:maj
8d-/	.
8dn/	.
8B/J	.
12f#/L	.
12g/	.
12b/J	.
8a/L	.
8g/J	.
=42||	=42||
8f#/L	2C:min
8a/	.
8cc/	.
8ee-/J	.
8cc\L	2F:dom
8cc#\	.
8dd\	.
8ccn\J	.
=43	=43
8b/L	2G:dom
8a/	.
8g/	.
8f/J	.
8e/L	2C:dom
8g/	.
8b-/	.
8dd/J	.
=44	=44
8cc\L	1F:dom
8b-\	.
8a\	.
8cc\J	.
8ee-\L	.
[8gg\J	.
4gg\]	.
=45	=45
2ff\}	2F:min
2r	2B-:dom
=46	=46
4r	2E-:maj
{8ee-\L	.
8dd\J	.
8cc\L	2E:o7
8b\	.
8b-\	.
8a-\J	.
=47	=47
8g/L	2C:min
8f/	.
8e-/	.
8c/J	.
8b-/L	2C-:maj
8g-/	.
8e-/	.
8B/J	.
=48	=48
8B-/L	1B-:maj
8e-/	.
8c/	.
8c#/J	.
4d/}	.
4r	.
=49	=49
2r	1F:maj
*>solo2b	*>solo2b
{8f/L	.
8a-/	.
8cc/	.
8ee-/J	.
=50||	=50||
8dd\L	1B-:dom
8b-\	.
8bn\	.
8cc\J	.
8a-/L	.
8c/	.
8B/	.
8c/J	.
=51	=51
8g/L	1E-:maj
8g-/	.
8e/	.
8B-/J	.
8Bn/L	.
8c#/	.
8A-/	.
8G-/J	.
=52	=52
8G/L	1E-:maj
8A-/	.
8B-/	.
8d/J	.
8f/L	.
8e-/	.
8B-/	.
8G/J	.
=53	=53
4.d/}	1C:dom
8r	.
4r	.
{12a\L	.
12b-\	.
12bn\J	.
=54	=54
8cc/L	1C:dom
8a/J	.
12b-\L	.
12cc\	.
12b-\J	.
8a/L	.
8g/	.
8e/	.
8c/J	.
=55	=55
8c#/L	1C:min
8d/	.
8B-/	.
8G/J	.
8cn/L	.
8B-/	.
8A/	.
8c/J	.
=56	=56
8e-/L	1F:dom
8g-/	.
8e-/	.
8c/J	.
8f/L	.
8e-/	.
8d/	.
8c/J	.
=57	=57
8A/L	1B-:maj
8B-/	.
8c/	.
8A/J	.
4B-/	.
12c/L	.
12B-/	.
12c/J	.
=58||	=58||
4d/}	2C:min
4r	.
2r	2F:dom
=59	=59
2r	2D:min
8r	2G:dom
*>solo2aa	*>solo2aa
{8B/L	.
8c/	.
8d/J	.
=60	=60
8e-/L	2C:min
8f/J	.
12g-/L	.
12a-/	.
12g-/J	.
8f/L	2F:dom
8e-/	.
8d/	.
8c/J	.
=61	=61
8B-/L	2F:min
8A/	.
8A-/	.
8B-/J	.
8b-/L	2B-:dom
8a-/	.
8g/	.
8f/J	.
=62	=62
8e-/L	2E-:maj
8A/	.
8B-/	.
8c/J	.
8d-/L	2E:o7
8B-/	.
8G/	.
8A/J	.
=63	=63
8c/L	2B-:maj
8B-/	.
8A/	.
8c/J	.
8e-/L	2G:dom
8g-/	.
8e-/	.
8en/J	.
=64	=64
8f/L	2C:min
8g/J	.
16a\LL	.
16b-\	.
16cc\	.
16cc#\JJ	.
4dd\	2F:dom
[4f/	.
=65	=65
4f/]}	1B-:maj
4r	.
2r	.
=66||	=66||
1r	.
=67	=67
1r	.
=68	=68
1r	.
=69	=69
1r	.
=70	=70
1r	.
=71	=71
1r	.
=72	=72
1r	.
=73	=73
1r	.
=74	=74
1r	.
=75	=75
1r	.
=76	=76
1r	.
=77	=77
1r	.
=78	=78
1r	.
=79	=79
1r	.
=80	=80
1r	.
=81	=81
1r	.
=82	=82
1r	.
=83	=83
1r	.
=84	=84
1r	.
=85	=85
1r	.
=86	=86
1r	.
=87	=87
1r	.
=88	=88
1r	.
=89	=89
1r	.
=90	=90
1r	.
=91	=91
1r	.
=92	=92
1r	.
=93	=93
1r	.
=94	=94
1r	.
=95	=95
1r	.
=96	=96
1r	.
=97	=97
1r	.
=98||	=98||
1r	.
=99	=99
1r	.
=100	=100
1r	.
=101	=101
1r	.
=102	=102
1r	.
=103	=103
1r	.
=104	=104
1r	.
=105	=105
1r	.
=106	=106
1r	.
=107	=107
1r	.
=108	=108
1r	.
=109	=109
1r	.
=110	=110
1r	.
=111	=111
1r	.
=112	=112
1r	.
=113	=113
1r	.
=114	=114
1r	.
=115	=115
1r	.
=116	=116
1r	.
=117	=117
1r	.
=118	=118
1r	.
=119	=119
1r	.
=120	=120
1r	.
=121	=121
1r	.
=122	=122
1r	.
=123	=123
1r	.
=124	=124
1r	.
=125	=125
1r	.
=126	=126
1r	.
=127	=127
1r	.
=128	=128
1r	.
=129	=129
1r	.
=130||	=130||
1r	.
=131	=131
1r	.
=132	=132
1r	.
=133	=133
1r	.
=134	=134
1r	.
=135	=135
1r	.
=136	=136
1r	.
=137	=137
1r	.
=138	=138
1r	.
=139	=139
1r	.
=140	=140
1r	.
=141	=141
1r	.
=142	=142
1r	.
=143	=143
1r	.
=144	=144
1r	.
=145	=145
*>solo3a	*>solo3a
{8cc/L	1B-:maj
8b-/	.
8g/	.
8a/J	.
4.b-\	.
[8cc\	.
=146||	=146||
8cc\]	2C:min
4b-\	.
8g/	.
8a/L	2F:dom
8b-/	.
8g/	.
8a/J	.
=147	=147
4b-\	1B-:maj
[2b-\	.
8b-\L]	.
[8b-\J	.
=148	=148
12b-\L]	2C:min
12cc\	.
12b-\J	.
8a/L	.
8g/J	.
8f/L	2F:dom
8g/	.
8d/	.
8e-/J	.
=149	=149
4f/}	2F:min
4r	.
8r	2B-:dom
*>solo3b	*>solo3b
{16cc\LL	.
16b\J	.
8b-\	.
8a-\J	.
=150	=150
8g/L	2E-:maj
8f/	.
8e-/	.
8c/J	.
8b-/L	2C-:maj
8g-/	.
8e-/	.
8B/J	.
=151	=151
8B-/L	1B-:maj
8e-/	.
8c/	.
8c#/J	.
8d/L	.
8B-/	.
8G/	.
8A/J	.
=152	=152
8c/L	2C:min
8B-/	.
8A/	.
8c/J	.
8e-/L	2F:dom
8g-/	.
8e-/	.
8en/J	.
=153	=153
8cc/L	1B-:maj
8b-/	.
8g/	.
8a/J	.
4.b-\	.
[8cc\	.
=154||	=154||
8cc\]	2C:min
4b-\	.
8g/	.
8a-/L	2F:dom
8b-/	.
8g/	.
8a-/J	.
=155	=155
4b-\	1B-:maj
[2b-\	.
8b-\L]	.
[8b-\J	.
=156	=156
12b-\L]	2C:min
12cc\	.
12b-\J	.
8a/L	.
8g/J	.
8f/L	2F:dom
8g/	.
8d/	.
8e-/J	.
=157	=157
4f/}	1B-:maj
4r	.
2r	.
=158	=158
1r	.
=159	=159
1r	.
=160	=160
2r	.
4r	.
*>solo3aa	*>solo3aa
{8f/L	.
8g/J	.
=161	=161
8a-\L	1F:min
8b-\	.
8cc\	.
8bn\J	.
8b-/L	.
8an/	.
8a-/	.
8c/J	.
=162||	=162||
8c#/L	1B-:dom
8d/	.
8g/	.
8g-/J	.
8e/L	.
8B-/	.
8Bn/	.
8d-/J	.
=163	=163
8A-/L	1E-:maj
8G-/	.
8Gn/	.
8B-/J	.
8c/L	.
8d/	.
8f/	.
8d/J	.
=164	=164
8e-/L	1E-:maj
8f/	.
8g/	.
8a-/J	.
8b-/L	.
8g-/J	.
12gn\L	.
12b-\	.
12dd\J	.
=165	=165
8ff\L	1G:min
8dd\	.
8ee-\	.
8een\J	.
8cc\L	.
8cc#\	.
8dd\	.
8ccn\J	.
=166	=166
8b-/L	1C:dom
8a/	.
8g/	.
8f/J	.
8e/L	.
8g/	.
8b-/	.
8dd/J	.
=167	=167
8cc\L	1C:min
8b\	.
8cc\	.
8dd\J	.
12ee-\L	.
12dd\	.
12dd-\J	.
8cc\L	.
8b\J	.
=168	=168
8b-/L	1F:dom
8a/	.
8a-/	.
8g/J	.
8g-/L	.
8f/J	.
4e/	.
=169	=169
8cc/L	1B-:maj
8b-/	.
8g/	.
8a/J	.
4.b-\	.
[8cc\	.
=170||	=170||
8cc\]	2C:min
4b-\	.
8g/	.
8a/L	2C:dom
8b-/	.
8g/	.
8a/J	.
=171	=171
4b-\	1B-:maj
[2b-\	.
8b-\L]	.
[8b-\J	.
=172	=172
12b-\L]	2C:min
12cc\	.
12b-\J	.
8a/L	.
8g/J	.
8f/L	2F:dom
8g/	.
8d/	.
8e-/J	.
=173	=173
4f/}	1B-:maj
4r	.
2r	.
==	==
*-	*-
